X: 594
T: Ger the Rigger
B: jims roots
M:4/4
L:1/8
R: Polka
Q: 1/4=100
K:A
V:1 
e2 | "A"e2A2e2A2 | efed c2A2 | "D"d3c defg | "A"a2e2"E7"fece |
"A"e2A2e2A2 | efedc2A2 | "D"d2fd"A"c2ec | "E7"BABc"A"A2 :|
"A"ce | a2e2fece | a2e2fece | "D"d3c defg | "A"a2e2"E7"fece |
"A"a2e2fece | a2e2fece | "D"d2fd"A"c2ec | "E7"BABc"A"A2 :|
% abcbook-tune_id 6298c25d1c1401194bd73eb6


% abcbook-boost 0
% abcbook-tablature 
% abcbook-transpose 
% abcbook-lastupdated 1654178398216
% abcbook-soundfonts 
% abcbook-repeats 1


